icons/fen.svg

<?xml version="1.0" encoding="UTF-8" standalone="no"?>
<!-- Uploaded to: SVG Repo, www.svgrepo.com, Transformed by: SVG Repo Mixer Tools -->

<svg
   height="256px"
   width="256px"
   version="1.1"
   id="Layer_1"
   viewBox="0 0 512 512"
   xml:space="preserve"
   fill="#000000"
   stroke="#000000"
   stroke-width="1.536"
   sodipodi:docname="fen.svg"
   inkscape:version="1.2.2 (b0a8486541, 2022-12-01)"
   xmlns:inkscape="http://www.inkscape.org/namespaces/inkscape"
   xmlns:sodipodi="http://sodipodi.sourceforge.net/DTD/sodipodi-0.dtd"
   xmlns="http://www.w3.org/2000/svg"
   xmlns:svg="http://www.w3.org/2000/svg"><defs
   id="defs3059" /><sodipodi:namedview
   id="namedview3057"
   pagecolor="#ffffff"
   bordercolor="#000000"
   borderopacity="0.25"
   inkscape:showpageshadow="2"
   inkscape:pageopacity="0.0"
   inkscape:pagecheckerboard="0"
   inkscape:deskcolor="#d1d1d1"
   showgrid="false"
   inkscape:zoom="0.921875"
   inkscape:cx="68.881356"
   inkscape:cy="128.54237"
   inkscape:window-width="1366"
   inkscape:window-height="691"
   inkscape:window-x="0"
   inkscape:window-y="0"
   inkscape:window-maximized="1"
   inkscape:current-layer="SVGRepo_iconCarrier" />

<g
   id="SVGRepo_bgCarrier"
   stroke-width="0" />

<g
   id="SVGRepo_tracerCarrier"
   stroke-linecap="round"
   stroke-linejoin="round" />

<g
   id="SVGRepo_iconCarrier">   <path
   style="fill:#ecf0f1;stroke-width:2.1852"
   d="m 23.730894,209.76802 h 85.254516 v 202.47944 c 0,20.58658 -19.182267,37.43609 -42.627251,37.43609 -23.446515,0 -42.627265,-16.84551 -42.627265,-37.43609 0,0 0,-202.47944 0,-202.47944 z"
   id="path2991" /> <path
   style="fill:#15bdb1;stroke-width:2.1852"
   d="m 36.622296,297.67398 v 114.57348 c 0,14.34034 13.404521,26.11553 29.732826,26.11553 16.329823,0 29.737369,-11.77519 29.737369,-26.11553 V 297.67398 Z"
   id="path2993" /> <g
   id="g2999"
   transform="matrix(1.5180649,0,0,1.3332419,-151.10312,-90.731353)"
   style="fill:#7fff2a"> <path
   style="fill:#7fff2a"
   d="m 258.884,139.067 v 117.405 l 83.314,153.893 c 12.479,23.048 -2.427,36.721 -28.469,36.721 h -86.373 -86.375 c -26.042,0 -40.955,-13.654 -28.469,-36.721 L 195.83,256.472 V 139.067 Z"
   id="path2995" /> <path
   style="fill:#7fff2a"
   d="M 425.858,239.714 V 383.847 H 329.623 V 239.714 c -12.449,0 102.929,0 96.235,0 z"
   id="path2997" /> </g> <path
   style="fill:#ff0000;stroke-width:2.1852"
   d="M 416.09297,213.70242 V 31.598917 h -62.53972 c -2.438,0 -4.41605,-1.735881 -4.41605,-3.874401 V 3.5675073 H 332.27454 V 69.433655 c 0,2.138517 -1.97652,3.877064 -4.41301,3.877064 h -26.47051 c -2.438,0 -4.41453,-1.737217 -4.41453,-3.877064 V 35.017349 H 198.45105 V 94.678582 H 189.6235 V 31.138949 c 0,-2.137187 1.97652,-3.874401 4.41453,-3.874401 h 107.35299 c 2.43802,0 4.41151,1.737214 4.41151,3.874401 v 34.4163 h 17.64295 V -0.31089272 c 0,-2.13852028 1.975,-3.87440088 4.41453,-3.87440088 h 25.69324 c 2.43498,0 4.41454,1.7358806 4.41454,3.87440088 V 23.847448 H 420.506 c 2.438,0 4.41453,1.734548 4.41453,3.877068 V 213.70375 h -8.82756 z"
   id="path3001" /> <g
   id="g3007"
   transform="matrix(1.5180649,0,0,1.3332419,-151.10312,-90.731353)"> <path
   style="fill:#c8cacc"
   d="m 379.446,258.762 c 0,1.606 -1.302,2.908 -2.908,2.908 -1.604,0 -2.907,-1.302 -2.907,-2.908 v -19.048 h 5.815 z"
   id="path3003" /> <path
   style="fill:#c8cacc"
   d="m 230.262,139.067 v 40.3 c 0,1.604 -1.303,2.908 -2.907,2.908 -1.606,0 -2.908,-1.303 -2.908,-2.908 v -40.3 z"
   id="path3005" /> </g> <path
   style="fill:#ff5b62;stroke-width:2.1852"
   d="M 134.52382,309.42518 36.461381,463.5866 c -2.356032,4.23304 -6.278717,12.78178 -3.133284,17.45214 4.532936,6.7262 21.972473,7.91411 29.587084,7.91411 H 325.15937 c 7.61765,0 25.04807,-1.19058 29.58253,-7.92212 3.14543,-4.67034 -0.76814,-13.21242 -3.12721,-17.44413 L 253.55224,309.42518 c -49.02135,-9.57268 -70.01162,13.67373 -119.02842,0 z"
   id="path3009" /> <path
   style="fill:#20d0c2;stroke-width:2.1852"
   d="m 364.55771,279.60056 c 81.01913,-12.24583 79.68626,15.74692 115.54447,0 V 410.24092 H 364.55771 Z"
   id="path3011" /> <g
   id="g3017"
   transform="matrix(1.5180649,0,0,1.3332419,-151.10312,-90.731353)"> <path
   style="fill:#666666"
   d="m 339.683,243.65 h 9.778 v 3.28 h -9.778 z m 0,129.216 v 0 h 4.888 v 3.282 h -4.888 z m 0,-7.6 v 0 h 9.778 v 3.281 h -9.778 z m 0,-7.603 v 0 h 4.888 v 3.282 h -4.888 z m 0,-7.602 v 0 h 9.778 v 3.282 h -9.778 z m 0,-7.6 v 0 h 4.888 v 3.282 h -4.888 z m 0,-7.599 v 0 h 9.778 v 3.28 h -9.778 z m 0,-7.602 v 0 h 4.888 v 3.281 h -4.888 z m 0,-7.601 v 0 h 9.778 v 3.281 h -9.778 z m 0,-7.603 v 0 h 4.888 v 3.283 h -4.888 z m 0,-7.6 v 0 h 9.778 v 3.281 h -9.778 z m 0,-7.601 v 0 h 4.888 v 3.281 h -4.888 z m 0,-7.601 v 0 h 9.778 v 3.281 h -9.778 z m 0,-7.6 v 0 h 4.888 v 3.282 h -4.888 z m 0,-7.602 v 0 h 9.778 v 3.282 h -9.778 z m 0,-7.601 v 0 h 4.888 v 3.282 h -4.888 z m 0,-7.602 v 0 h 9.778 v 3.282 h -9.778 z m 0,-7.601 v 0 h 4.888 v 3.282 h -4.888 z"
   id="path3013" /> <path
   style="fill:#666666"
   d="m 123.661,246.86 h 9.778 v 3.282 h -9.778 z m 0,129.216 v 0 h 4.888 v 3.282 h -4.888 c 0,0 0,-3.282 0,-3.282 z m 0,-7.601 v 0 h 9.778 v 3.282 h -9.778 z m 0,-7.601 v 0 h 4.888 v 3.281 h -4.888 c 0,0 0,-3.281 0,-3.281 z m 0,-7.602 v 0 h 9.778 v 3.281 h -9.778 z m 0,-7.6 v 0 h 4.888 v 3.282 h -4.888 c 0,-0.001 0,-3.282 0,-3.282 z m 0,-7.599 v 0 h 9.778 v 3.281 h -9.778 z m 0,-7.603 v 0 h 4.888 v 3.282 h -4.888 c 0,-0.001 0,-3.282 0,-3.282 z m 0,-7.602 v 0 h 9.778 v 3.282 h -9.778 z m 0,-7.601 v 0 h 4.888 v 3.282 h -4.888 c 0,0 0,-3.282 0,-3.282 z m 0,-7.6 v 0 h 9.778 v 3.281 h -9.778 z m 0,-7.6 v 0 h 4.888 v 3.28 h -4.888 c 0,0 0,-3.28 0,-3.28 z m 0,-7.602 v 0 h 9.778 v 3.281 h -9.778 z m 0,-7.6 v 0 h 4.888 v 3.282 h -4.888 c 0,-10e-4 0,-3.282 0,-3.282 z m 0,-7.603 v 0 h 9.778 v 3.282 h -9.778 z m 0,-7.602 v 0 h 4.888 v 3.282 h -4.888 c 0,0 0,-3.282 0,-3.282 z m 0,-7.6 v 0 h 9.778 v 3.281 h -9.778 z m 0,-7.601 v 0 h 4.888 v 3.281 h -4.888 c 0,0 0,-3.281 0,-3.281 z"
   id="path3015" /> </g> <g
   id="g3033"
   transform="matrix(1.5180649,0,0,1.3332419,-151.10312,-90.731353)"> <path
   style="fill:#fad24d"
   d="m 212.48,344.014 c 5.172,0 9.367,4.192 9.367,9.366 0,5.172 -4.194,9.367 -9.367,9.367 -5.174,0 -9.366,-4.194 -9.366,-9.367 0,-5.174 4.192,-9.366 9.366,-9.366 z"
   id="path3019" /> <path
   style="fill:#fad24d"
   d="m 170.706,387.494 c 3.752,0 6.795,3.042 6.795,6.796 0,3.753 -3.042,6.796 -6.795,6.796 -3.755,0 -6.796,-3.042 -6.796,-6.796 0.001,-3.754 3.042,-6.796 6.796,-6.796 z"
   id="path3021" /> <path
   style="fill:#fad24d"
   d="m 273.866,349.671 c 3.796,0 6.871,3.077 6.871,6.87 0,3.795 -3.075,6.87 -6.871,6.87 -3.794,0 -6.87,-3.075 -6.87,-6.87 0.001,-3.793 3.077,-6.87 6.87,-6.87 z"
   id="path3023" /> <path
   style="fill:#fad24d"
   d="m 232.638,310.706 c 2.762,0 5.004,2.241 5.004,5.005 0,2.762 -2.242,5.004 -5.004,5.004 -2.765,0 -5.005,-2.242 -5.005,-5.004 -0.001,-2.764 2.241,-5.005 5.005,-5.005 z"
   id="path3025" /> <path
   style="fill:#fad24d"
   d="m 290.688,404.654 c 3.328,0 6.024,2.698 6.024,6.023 0,3.328 -2.696,6.024 -6.024,6.024 -3.327,0 -6.024,-2.697 -6.024,-6.024 -10e-4,-3.326 2.698,-6.023 6.024,-6.023 z"
   id="path3027" /> <path
   style="fill:#fad24d"
   d="m 194.474,419.421 c 2.168,0 3.925,1.758 3.925,3.925 0,2.169 -1.758,3.926 -3.925,3.926 -2.169,0 -3.926,-1.758 -3.926,-3.926 0,-2.168 1.757,-3.925 3.926,-3.925 z"
   id="path3029" /> <path
   style="fill:#fad24d"
   d="m 242.565,384.091 c 5.633,0 10.199,4.565 10.199,10.199 0,5.632 -4.565,10.197 -10.199,10.197 -5.632,0 -10.197,-4.565 -10.197,-10.197 0,-5.633 4.565,-10.199 10.197,-10.199 z"
   id="path3031" /> </g> <path
   style="fill:#20d0c2;stroke-width:2.1852"
   d="m 192.8843,164.64845 c 3.57504,0 6.47304,2.54516 6.47304,5.68628 0,3.13578 -2.89648,5.68361 -6.47304,5.68361 -3.57352,0 -6.47151,-2.54516 -6.47151,-5.68361 0.002,-3.14112 2.89951,-5.68628 6.47151,-5.68628 z"
   id="path3035" /> <path
   style="fill:#ff5b62;stroke-width:2.1852"
   d="m 187.36765,197.23555 c 6.94667,0 12.58022,4.94765 12.58022,11.04857 0,6.10091 -5.63355,11.04724 -12.58022,11.04724 -6.94666,0 -12.57868,-4.94633 -12.57868,-11.04724 0,-6.10092 5.6305,-11.04857 12.57868,-11.04857 z"
   id="path3037" /> <path
   style="fill:#ffffff;stroke-width:2.1852"
   d="M 157.58475,78.972996 H 142.2538 c -12.53921,0 -12.53921,18.888038 0,18.888038 h 15.33095 72.90506 15.3279 c 12.54073,0 12.54073,-18.888038 0,-18.888038 h -15.3279 z"
   id="path3039" /> <path
   style="fill:#fad24d;stroke-width:2.1852"
   d="m 211.77055,237.68344 c 4.40847,0 7.9835,3.13979 7.9835,7.01152 0,3.87173 -3.57352,7.01018 -7.9835,7.01018 -4.40542,0 -7.97895,-3.13578 -7.97895,-7.01018 0,-3.87308 3.57353,-7.01152 7.97895,-7.01152 z"
   id="path3041" /> <path
   style="fill:#ecf0f1;stroke-width:2.1852"
   d="m 181.79636,263.44567 c 9.60025,0 17.38487,6.83686 17.38487,15.26828 0,8.4301 -7.78462,15.26562 -17.38487,15.26562 -9.60024,0 -17.38488,-6.83419 -17.38488,-15.26562 0,-8.43142 7.78464,-15.26828 17.38488,-15.26828 z"
   id="path3043" /> <path
   style="fill:#20d0c2;stroke-width:2.1852"
   d="m 222.28163,282.81234 c 2.20575,0 3.99403,1.57055 3.99403,3.50642 0,1.93721 -1.78828,3.5051 -3.99403,3.5051 -2.20271,0 -3.98947,-1.56789 -3.98947,-3.5051 0,-1.9372 1.78524,-3.50642 3.98947,-3.50642 z"
   id="path3045" /> <path
   style="fill:#fad24d;stroke-width:2.1852"
   d="m 142.29176,367.51719 c 2.84789,0 5.15686,2.0252 5.15686,4.52769 0,2.49983 -2.30897,4.53036 -5.15686,4.53036 -2.84789,0 -5.15839,-2.03053 -5.15839,-4.53036 -0.001,-2.50249 2.30898,-4.52769 5.15839,-4.52769 z"
   id="path3047" /> <g
   id="g3053"
   transform="matrix(1.5180649,0,0,1.3332419,-151.10312,-90.731353)"> <path
   style="fill:#ffffff"
   d="m 323.517,229.187 h 108.49 c 7.453,0 7.453,12.66 0,12.66 h -108.49 c -7.453,0.001 -7.453,-12.66 0,-12.66 z"
   id="path3049" /> <path
   style="fill:#ffffff"
   d="m 113.209,219.201 h 61.248 c 4.207,0 4.207,7.839 0,7.839 h -61.248 c -4.207,0 -4.207,-7.839 0,-7.839 z"
   id="path3051" /> </g> </g>

</svg>

<!DOCTYPE svg PUBLIC "-//W3C//DTD SVG 1.1//EN" "http://www.w3.org/Graphics/SVG/1.1/DTD/svg11.dtd">
<!-- Uploaded to: SVG Repo, www.svgrepo.com, Transformed by: SVG Repo Mixer Tools -->
<svg height="256px" width="256px" version="1.1" id="Layer_1" xmlns="http://www.w3.org/2000/svg" xmlns:xlink="http://www.w3.org/1999/xlink" viewBox="0 0 512 512" xml:space="preserve" fill="#000000" stroke="#000000" stroke-width="1.536">
<g id="SVGRepo_bgCarrier" stroke-width="0"/>
<g id="SVGRepo_tracerCarrier" stroke-linecap="round" stroke-linejoin="round"/>
<g id="SVGRepo_iconCarrier"> <path style="fill:#ffffff;" d="M255.999,0c141.385,0,256,114.614,256,256.001c0,141.384-114.615,255.999-256,255.999 C114.616,512,0.001,397.385,0.001,256.001C0.001,114.613,114.616,0,255.999,0z"/> <path style="fill:#ffffff;" d="M480.024,379.968C436.362,458.701,352.409,512,255.999,512c-96.408,0-180.361-53.299-224.023-132.032 L480.024,379.968L480.024,379.968z"/> <path style="fill:#ECF0F1;" d="M115.169,225.39h56.16v151.87c0,15.441-12.636,28.079-28.08,28.079 c-15.445,0-28.08-12.635-28.08-28.079C115.169,377.26,115.169,225.39,115.169,225.39z"/> <path style="fill:#15BDB1;" d="M123.661,291.324v85.936c0,10.756,8.83,19.588,19.586,19.588c10.757,0,19.589-8.832,19.589-19.588 v-85.936H123.661z"/> <g> <path style="fill:#ECF0F1;" d="M258.884,139.067v117.405l83.314,153.893c12.479,23.048-2.427,36.721-28.469,36.721h-86.373h-86.375 c-26.042,0-40.955-13.654-28.469-36.721l83.318-153.893V139.067H258.884z"/> <path style="fill:#ECF0F1;" d="M425.858,239.714v144.133h-96.235V239.714C317.174,239.714,432.552,239.714,425.858,239.714z"/> </g> <path style="fill:#FF5B62;" d="M373.631,228.341V91.754h-41.197c-1.606,0-2.909-1.302-2.909-2.906V70.729h-11.108v49.403 c0,1.604-1.302,2.908-2.907,2.908h-17.437c-1.606,0-2.908-1.303-2.908-2.908V94.318h-64.902v44.749h-5.815V91.409 c0-1.603,1.302-2.906,2.908-2.906h70.717c1.606,0,2.906,1.303,2.906,2.906v25.814h11.622V67.82c0-1.604,1.301-2.906,2.908-2.906 h16.925c1.604,0,2.908,1.302,2.908,2.906v18.12h41.196c1.606,0,2.908,1.301,2.908,2.908v139.494H373.631L373.631,228.341z"/> <g> <path style="fill:#C8CACC;" d="M379.446,258.762c0,1.606-1.302,2.908-2.908,2.908c-1.604,0-2.907-1.302-2.907-2.908v-19.048h5.815 v19.048H379.446z"/> <path style="fill:#C8CACC;" d="M230.262,139.067v40.3c0,1.604-1.303,2.908-2.907,2.908c-1.606,0-2.908-1.303-2.908-2.908v-40.3 H230.262z"/> </g> <path style="fill:#FF5B62;" d="M188.152,300.138l-64.597,115.629c-1.552,3.175-4.136,9.587-2.064,13.09 c2.986,5.045,14.474,5.936,19.49,5.936h172.749c5.018,0,16.5-0.893,19.487-5.942c2.072-3.503-0.506-9.91-2.06-13.084 l-64.597-115.629C234.268,292.958,220.441,310.394,188.152,300.138z"/> <path style="fill:#20D0C2;" d="M339.683,277.768c53.37-9.185,52.492,11.811,76.113,0v97.987h-76.113V277.768z"/> <g> <path style="fill:#666666;" d="M339.683,243.65h9.778v3.28h-9.778V243.65z M339.683,372.866L339.683,372.866h4.888v3.282h-4.888 V372.866z M339.683,365.266L339.683,365.266h9.778v3.281h-9.778V365.266z M339.683,357.663L339.683,357.663h4.888v3.282h-4.888 V357.663z M339.683,350.061L339.683,350.061h9.778v3.282h-9.778V350.061z M339.683,342.461L339.683,342.461h4.888v3.282h-4.888 V342.461z M339.683,334.862L339.683,334.862h9.778v3.28h-9.778V334.862z M339.683,327.26L339.683,327.26h4.888v3.281h-4.888V327.26 z M339.683,319.659L339.683,319.659h9.778v3.281h-9.778V319.659z M339.683,312.056L339.683,312.056h4.888v3.283h-4.888V312.056z M339.683,304.456L339.683,304.456h9.778v3.281h-9.778V304.456z M339.683,296.855L339.683,296.855h4.888v3.281h-4.888V296.855z M339.683,289.254L339.683,289.254h9.778v3.281h-9.778V289.254z M339.683,281.654L339.683,281.654h4.888v3.282h-4.888V281.654z M339.683,274.052L339.683,274.052h9.778v3.282h-9.778V274.052z M339.683,266.451L339.683,266.451h4.888v3.282h-4.888V266.451z M339.683,258.849L339.683,258.849h9.778v3.282h-9.778V258.849z M339.683,251.248L339.683,251.248h4.888v3.282h-4.888V251.248z"/> <path style="fill:#666666;" d="M123.661,246.86h9.778v3.282h-9.778V246.86z M123.661,376.076L123.661,376.076h4.888v3.282h-4.888 C123.661,379.358,123.661,376.076,123.661,376.076z M123.661,368.475L123.661,368.475h9.778v3.282h-9.778V368.475z M123.661,360.874L123.661,360.874h4.888v3.281h-4.888C123.661,364.155,123.661,360.874,123.661,360.874z M123.661,353.272 L123.661,353.272h9.778v3.281h-9.778V353.272z M123.661,345.672L123.661,345.672h4.888v3.282h-4.888 C123.661,348.953,123.661,345.672,123.661,345.672z M123.661,338.073L123.661,338.073h9.778v3.281h-9.778V338.073z M123.661,330.47 L123.661,330.47h4.888v3.282h-4.888C123.661,333.751,123.661,330.47,123.661,330.47z M123.661,322.868L123.661,322.868h9.778v3.282 h-9.778V322.868z M123.661,315.267L123.661,315.267h4.888v3.282h-4.888C123.661,318.549,123.661,315.267,123.661,315.267z M123.661,307.667L123.661,307.667h9.778v3.281h-9.778V307.667z M123.661,300.067L123.661,300.067h4.888v3.28h-4.888 C123.661,303.347,123.661,300.067,123.661,300.067z M123.661,292.465L123.661,292.465h9.778v3.281h-9.778V292.465z M123.661,284.865L123.661,284.865h4.888v3.282h-4.888C123.661,288.146,123.661,284.865,123.661,284.865z M123.661,277.262 L123.661,277.262h9.778v3.282h-9.778V277.262z M123.661,269.66L123.661,269.66h4.888v3.282h-4.888 C123.661,272.942,123.661,269.66,123.661,269.66z M123.661,262.06L123.661,262.06h9.778v3.281h-9.778V262.06z M123.661,254.459 L123.661,254.459h4.888v3.281h-4.888C123.661,257.74,123.661,254.459,123.661,254.459z"/> </g> <g> <path style="fill:#FAD24D;" d="M212.48,344.014c5.172,0,9.367,4.192,9.367,9.366c0,5.172-4.194,9.367-9.367,9.367 c-5.174,0-9.366-4.194-9.366-9.367C203.114,348.206,207.306,344.014,212.48,344.014z"/> <path style="fill:#FAD24D;" d="M170.706,387.494c3.752,0,6.795,3.042,6.795,6.796c0,3.753-3.042,6.796-6.795,6.796 c-3.755,0-6.796-3.042-6.796-6.796C163.911,390.536,166.952,387.494,170.706,387.494z"/> <path style="fill:#FAD24D;" d="M273.866,349.671c3.796,0,6.871,3.077,6.871,6.87c0,3.795-3.075,6.87-6.871,6.87 c-3.794,0-6.87-3.075-6.87-6.87C266.997,352.748,270.073,349.671,273.866,349.671z"/> <path style="fill:#FAD24D;" d="M232.638,310.706c2.762,0,5.004,2.241,5.004,5.005c0,2.762-2.242,5.004-5.004,5.004 c-2.765,0-5.005-2.242-5.005-5.004C227.632,312.947,229.874,310.706,232.638,310.706z"/> <path style="fill:#FAD24D;" d="M290.688,404.654c3.328,0,6.024,2.698,6.024,6.023c0,3.328-2.696,6.024-6.024,6.024 c-3.327,0-6.024-2.697-6.024-6.024C284.663,407.351,287.362,404.654,290.688,404.654z"/> <path style="fill:#FAD24D;" d="M194.474,419.421c2.168,0,3.925,1.758,3.925,3.925c0,2.169-1.758,3.926-3.925,3.926 c-2.169,0-3.926-1.758-3.926-3.926C190.548,421.178,192.305,419.421,194.474,419.421z"/> <path style="fill:#FAD24D;" d="M242.565,384.091c5.633,0,10.199,4.565,10.199,10.199c0,5.632-4.565,10.197-10.199,10.197 c-5.632,0-10.197-4.565-10.197-10.197C232.368,388.657,236.933,384.091,242.565,384.091z"/> </g> <path style="fill:#20D0C2;" d="M226.596,191.548c2.355,0,4.264,1.909,4.264,4.265c0,2.352-1.908,4.263-4.264,4.263 c-2.354,0-4.263-1.909-4.263-4.263C222.335,193.457,224.243,191.548,226.596,191.548z"/> <path style="fill:#FF5B62;" d="M222.962,215.99c4.576,0,8.287,3.711,8.287,8.287c0,4.576-3.711,8.286-8.287,8.286 c-4.576,0-8.286-3.71-8.286-8.286S218.385,215.99,222.962,215.99z"/> <path style="fill:#FFFFFF;" d="M203.343,127.287h-10.099c-8.26,0-8.26,14.167,0,14.167h10.099h48.025h10.097 c8.261,0,8.261-14.167,0-14.167h-10.097H203.343z"/> <path style="fill:#FAD24D;" d="M239.037,246.328c2.904,0,5.259,2.355,5.259,5.259c0,2.904-2.354,5.258-5.259,5.258 c-2.902,0-5.256-2.352-5.256-5.258C233.781,248.682,236.135,246.328,239.037,246.328z"/> <path style="fill:#ECF0F1;" d="M219.292,265.651c6.324,0,11.452,5.128,11.452,11.452c0,6.323-5.128,11.45-11.452,11.45 s-11.452-5.126-11.452-11.45S212.968,265.651,219.292,265.651z"/> <path style="fill:#20D0C2;" d="M245.961,280.177c1.453,0,2.631,1.178,2.631,2.63c0,1.453-1.178,2.629-2.631,2.629 c-1.451,0-2.628-1.176-2.628-2.629C243.333,281.354,244.509,280.177,245.961,280.177z"/> <path style="fill:#FAD24D;" d="M193.269,343.71c1.876,0,3.397,1.519,3.397,3.396c0,1.875-1.521,3.398-3.397,3.398 s-3.398-1.523-3.398-3.398C189.87,345.229,191.392,343.71,193.269,343.71z"/> <g> <path style="fill:#FFFFFF;" d="M323.517,229.187h108.49c7.453,0,7.453,12.66,0,12.66h-108.49 C316.064,241.848,316.064,229.187,323.517,229.187z"/> <path style="fill:#FFFFFF;" d="M113.209,219.201h61.248c4.207,0,4.207,7.839,0,7.839h-61.248 C109.002,227.04,109.002,219.201,113.209,219.201z"/> </g> </g>
</svg>
